exported-svg/toggle-right.svg

<svg height="24" viewBox="0 0 24 24" width="24" xmlns="http://www.w3.org/2000/svg"><path d="m8.5 5h8c4.1421356 0 7.5 3.35786438 7.5 7.5 0 4.1421356-3.3578644 7.5-7.5 7.5h-8c-4.14213562 0-7.5-3.3578644-7.5-7.5 0-4.14213562 3.35786438-7.5 7.5-7.5zm0 1c-3.58985087 0-6.5 2.91014913-6.5 6.5 0 3.5898509 2.91014913 6.5 6.5 6.5h8c3.5898509 0 6.5-2.9101491 6.5-6.5 0-3.58985087-2.9101491-6.5-6.5-6.5zm8 10c-1.9329966 0-3.5-1.5670034-3.5-3.5s1.5670034-3.5 3.5-3.5 3.5 1.5670034 3.5 3.5-1.5670034 3.5-3.5 3.5zm0-1c1.3807119 0 2.5-1.1192881 2.5-2.5s-1.1192881-2.5-2.5-2.5-2.5 1.1192881-2.5 2.5 1.1192881 2.5 2.5 2.5z"/></svg>

<?xml version="1.0" encoding="UTF-8"?>
<svg width="24px" height="24px" viewBox="0 0 24 24" version="1.1" xmlns="http://www.w3.org/2000/svg" xmlns:xlink="http://www.w3.org/1999/xlink">
    <!-- Generator: Sketch 55.2 (78181) - https://sketchapp.com -->
    <title>toggle-right</title>
    <desc>Created with Sketch.</desc>
    <g id="toggle-right" stroke="none" stroke-width="1" fill="none" fill-rule="evenodd">
        <path d="M8.5,5 L16.5,5 C20.6421356,5 24,8.35786438 24,12.5 C24,16.6421356 20.6421356,20 16.5,20 L8.5,20 C4.35786438,20 1,16.6421356 1,12.5 C1,8.35786438 4.35786438,5 8.5,5 Z M8.5,6 C4.91014913,6 2,8.91014913 2,12.5 C2,16.0898509 4.91014913,19 8.5,19 L16.5,19 C20.0898509,19 23,16.0898509 23,12.5 C23,8.91014913 20.0898509,6 16.5,6 L8.5,6 Z" id="Rectangle-path" fill="#000000" fill-rule="nonzero"></path>
        <path d="M16.5,16 C18.4329966,16 20,14.4329966 20,12.5 C20,10.5670034 18.4329966,9 16.5,9 C14.5670034,9 13,10.5670034 13,12.5 C13,14.4329966 14.5670034,16 16.5,16 Z M16.5,15 C15.1192881,15 14,13.8807119 14,12.5 C14,11.1192881 15.1192881,10 16.5,10 C17.8807119,10 19,11.1192881 19,12.5 C19,13.8807119 17.8807119,15 16.5,15 Z" id="Oval" fill="#000000" fill-rule="nonzero"></path>
    </g>
</svg>
